X: 36
T: Sweet Marie [1]
C:Mac Trayham version
B: canberra pickers and fiddlers
B: tunes
M:C|
Q: 1/4=180
K:A
V:1 
AB|:"A"cBcB A3A | A2B2c3A | B2c2 "D"d3e | fa2f "A"e4 | 
"A"c2d2 e3e | f2a2c3B | cBA2 "E"BG3 |1"A"A3A-  A2AB :|2"A"A3A-A4 |]
|:[M:1/2]a2g2 |[M:C|]"D"f4 d3e | fa2b a2f2 | "A"e2e2cBcd | e6[c2e2]- | 
[ce]Bcd e3e | f2a2c3B | cBA2 "E"BG3 |1"A"A3A A4:|2"A" A3AA2 |]
% abcbook-tune_id 63da593410884beaa215175c
% abcbook-tune_composer_id 
% abcbook-link-0 https://www.youtube.com/watch?v=oAu1BHVGMzQ
% abcbook-boost 5
% abcbook-difficulty 0
% abcbook-tags canberra pickers and fiddlers,old time tunes,© free
% abcbook-tablature 
% abcbook-transpose 
% abcbook-tuning AEAE
% abcbook-lastupdated 1729469069395
% abcbook-src-url https://tunebook.net/scrape/tunes.abc
% abcbook-soundfonts 
% abcbook-repeats 1
%%gchordfont "itim-music,Itim" 20

